assets/svg/icons/leaf.svg

<svg width="48" height="48" viewBox="0 0 48 48" fill="none" xmlns="http://www.w3.org/2000/svg">
    <path fill-rule="evenodd" clip-rule="evenodd" d="M5.87879 27.9403C6.52706 27.8459 7.17206 27.7942 7.82033 27.7851C4.97919 24.4027 3.45105 20.1741 4.19193 16.0733C4.34077 15.2696 5.0453 14.676 5.87879 14.5724C9.14991 14.0793 12.4606 14.7095 15.434 16.1007C14.7792 12.6758 15.3316 9.02556 17.2433 5.8046C18.6126 3.50914 20.5806 1.60335 22.9421 0.282082C23.5507 -0.0710672 24.3578 -0.107587 25.0226 0.25774C31.0985 3.6157 33.7047 10.1215 32.5702 16.1098C33.1887 15.8237 33.8172 15.5649 34.4556 15.3518C37.0354 14.4811 39.6881 14.2041 42.1357 14.5755C42.9692 14.679 43.6736 15.2757 43.8125 16.0764C44.5534 20.1741 43.0352 24.4027 40.1841 27.7881C40.839 27.7972 41.4973 27.849 42.1357 27.9434C42.9692 28.056 43.6736 28.6436 43.8125 29.4534C45.4431 38.4374 36.1821 48.0515 25.9883 47.9998H22.0193C11.8289 48.0515 2.56464 38.4374 4.18531 29.4534C4.33415 28.6436 5.03868 28.056 5.87217 27.9434L5.87879 27.9403ZM24.0006 4.02364C17.5113 8.55369 17.5113 18.1435 24.0006 22.6736C30.4899 18.1435 30.4899 8.55369 24.0006 4.02364ZM12.1861 18.7798C10.7606 18.2957 9.33508 18.0552 7.9757 18.0644C7.92939 24.5793 14.9414 31.0334 22.0095 30.9908V30.9886C22.0095 30.8858 22.0095 30.783 22.0193 30.6803C21.8771 25.5109 17.3788 20.5486 12.1827 18.7798H12.1861ZM25.9883 30.9908V30.6559C26.1736 24.2597 33.0763 18.0217 40.032 18.0644C40.0783 24.5793 33.0664 31.0334 25.9883 30.9908ZM25.9883 44.0299V44.3648C33.0664 44.4074 40.0783 37.9442 40.032 31.4383C33.0763 31.3957 26.1736 37.6245 25.9883 44.0299ZM7.9757 31.4383C9.33508 31.4292 10.7606 31.6697 12.1861 32.1538H12.1827C17.3788 33.9134 21.8771 38.8849 22.0193 44.0543C22.0095 44.157 22.0095 44.2598 22.0095 44.3626V44.3648C14.9414 44.4074 7.92939 37.9442 7.9757 31.4383Z" fill="url(#paint0_radial_1718_46485)"/>
    <defs>
    <radialGradient id="paint0_radial_1718_46485" cx="0" cy="0" r="1" gradientUnits="userSpaceOnUse" gradientTransform="translate(7.65385 6.05514) rotate(47.9965) scale(53.9611 45.5131)">
    <stop stop-color="#1F2348" stop-opacity="0.1"/>
    <stop offset="1" stop-color="#1F2348" stop-opacity="0.4"/>
    </radialGradient>
    </defs>
    </svg>

<svg xmlns="http://www.w3.org/2000/svg" width="48" height="48" fill="none" viewBox="0 0 48 48">
  <path fill="url(#a)" fill-rule="evenodd" d="M5.879 27.94a14.888 14.888 0 0 1 1.941-.155c-2.84-3.382-4.369-7.61-3.628-11.712.149-.803.853-1.397 1.687-1.5 3.27-.494 6.582.136 9.555 1.528a14.69 14.69 0 0 1 1.81-10.296A15.361 15.361 0 0 1 22.941.282a2.141 2.141 0 0 1 2.08-.024c6.077 3.358 8.683 9.864 7.548 15.852a18.307 18.307 0 0 1 1.886-.758c2.58-.87 5.232-1.148 7.68-.777.833.104 1.538.7 1.676 1.501.741 4.098-.777 8.327-3.628 11.712.655.01 1.313.061 1.952.155.833.113 1.538.7 1.676 1.51 1.631 8.984-7.63 18.599-17.824 18.547H22.02c-10.19.052-19.454-9.563-17.834-18.547.15-.81.854-1.397 1.687-1.51l.007-.003ZM24 4.024c-6.49 4.53-6.49 14.12 0 18.65 6.489-4.53 6.489-14.12 0-18.65ZM12.186 18.78c-1.425-.484-2.85-.725-4.21-.716-.047 6.515 6.965 12.97 14.034 12.927v-.002c0-.103 0-.206.01-.309-.143-5.169-4.641-10.131-9.837-11.9h.003Zm13.802 12.21v-.334c.186-6.396 7.088-12.634 14.044-12.592.046 6.515-6.966 12.97-14.044 12.927Zm0 13.04v.335c7.078.042 14.09-6.42 14.044-12.927-6.956-.042-13.858 6.187-14.044 12.592ZM7.976 31.438c1.36-.009 2.785.232 4.21.716h-.003c5.196 1.76 9.694 6.731 9.836 11.9-.01.103-.01.206-.01.309v.002c-7.068.042-14.08-6.42-14.033-12.927Z" clip-rule="evenodd"/>
  <defs>
    <radialGradient id="a" cx="0" cy="0" r="1" gradientTransform="matrix(36.10947 40.0987 -33.82096 30.45627 7.654 6.055)" gradientUnits="userSpaceOnUse">
      <stop stop-color="#1F2348" stop-opacity=".1"/>
      <stop offset="1" stop-color="#1F2348" stop-opacity=".4"/>
    </radialGradient>
  </defs>
</svg>
